X: 98
T: No_187_Old_Man's_Dance_SOng_(f).krn
N: Derived from No_187_Old_Man's_Dance_SOng_(f).krn
%%abc-version 2.0
%%abcx-abcm2ps-target-version 5.9.1 (29 Sep 2008)
%%abc-creator hum2abc beta
%%abcx-conversion-date 2019/03/15 08:38:45
%%humdrum-veritas 4002368094
%%humdrum-veritas-data 3226721936
%%linebreak <none>
%%barnumbers 0
L: 1/8
M: 2/4
K: Eb clef=bass
[K:clef=bass][M:2/4](C/B,3/) (C/B,3/) | 
B,4 | 
z2CB, ]|:  
(B,G,)G,2 ||  
[M:3/4]A,3z A,A, ||  
[M:2/4]G,2E,2 | 
z2A,A, | 
G,2E,2 ||  
[M:3/4]G,4E,E, ||  
[M:2/4]E,2B,, z | 
E,E,E,2 ||  
[M:3/4]E,E,E,2A,A, ||  
[M:2/4]G,2E,2 | 
A,2G,2 ||  
[M:3/4]!accent!G,2E,2E,2 ||  
[M:2/4]E,4 ||  
[M:3/4]B,,2B,,2z2 ||  
[M:2/4]E,E,E,2 | 
CCC2 ||  
[M:3/4]B,4CB, :|]  



